X:1
T:Title
%%score { ( 1 3 5 ) | ( 2 4 ) }
L:1/8
Q:1/4=100
M:4/4
K:D
V:1 treble nm="Grand Piano"
V:3 treble 
V:5 treble 
V:2 bass 
V:4 bass 
V:1
 F2 F2 F2 [EG]2 | [FA]>[Fd] [Ec]>[Ge] [Fd]2 [FA]2 | B2 d>B [FA]2 [DF]2 | [DF]2 [CE]2 [CE]4 | %4
w: Chas.~H.~Gabriel * * *||||
 F2 F2 F2 [EG]2 | [FA]>[Fd] [Ec]>[Ge] [Fd]2 [FA]2 | ^G2 B>d c2 B2 | A6 z2 | d6 z2 | %9
w: |||||
 A->[FA-] [FA-]>[FA] F2 [Fd]>[A,DF] | [A,CE]2 [CGB]2 [CGB]2[K:bass] [A,CE]>[G,CE] | %11
w: ||
 z2[K:treble] A2 [DF]4 | d6 z2 | A4 F2 z2 | [CE]2 [CB]2 [CA]2 C2 | D6 z2 |] %16
w: |||||
V:2
 [D,A,D]2 [D,A,D]2 [D,A,D]2 [D,A,]2 | [D,D]>[D,A,] [A,,A,]>[A,,A,] [D,A,]2 [D,D]2 | %2
 [G,DG]2 [G,B,G]>[G,DG][K:bass] [D,D]2 [D,A,]2 | [A,,A,]2 [A,,A,]2 [A,,A,]4 | %4
 [D,A,D]2 [D,A,D]2 [D,A,D]2 [D,A,]2 | [D,D]>[D,A,] [A,,A,]>[A,,A,] [D,A,]2 [D,D]2 | %6
 [E,DE]2 [E,DE]>[E,B,E] [E,A,E]2 [E,DE]2 | z2 D2 E2 z2 | %8
 [D,A,]>[D,A,] [D,A,]>[D,A,] [D,A,]2 [D,B,]2 | [D,D]>[D,D] [D,D]>[D,D] [D,A,D]2 [D,A,]>D, | %10
 A,,2 A,,2 A,,2 A,,>A,, | D,>D, D,>D, (3z[K:treble] ^GA- A2 | %12
 [D,A,]>[D,A,] [D,A,]>[D,A,] [D,A,]2 [D,B,]2 | %13
 [D,D]>[D,D] [D,D]>[D,D] [D,A,D]>[D,A,] [D,A,]>[D,A,] | [A,,A,]2 [A,,G,]2 [A,,E,]2 [A,,G,A,]2 | %15
 [D,F,A,]6 z2 |] %16
V:3
 x8 | x8 | x8 | x8 | x8 | x8 | x8 | [CE]2 F2 G2 z2 | z z/ F/ F>F (3z ce (3dcB | F2 z2 z4 | %10
 x6[K:bass] x2 | [F,D]>[F,D][K:treble] [DF]>[DF] A2 (3^ABc | z z/ F/ F>F (3z ce (3dcB | %13
 F>F F>F z z/ D/ [Fd]>[DF] | x8 | x8 |] %16
V:4
 x8 | x8 | x4[K:bass] x4 | x8 | x8 | x8 | x8 | A,,6 z2 | x8 | x8 | x8 | z4 D,4[K:treble] | x8 | %13
 x8 | x8 | x8 |] %16
V:5
 x8 | x8 | x8 | x8 | x8 | x8 | x8 | x8 | F2 z2 F2 G2 | x8 | x6[K:bass] x2 | x2[K:treble] x6 | %12
 F2 z2 F2 G2 | x8 | x8 | x8 |] %16

